images/icons/header-icon-2.svg

<svg width="14" height="18" viewBox="0 0 14 18" fill="none" xmlns="http://www.w3.org/2000/svg">
<path d="M7 0C5.14416 0.00221173 3.36495 0.747945 2.05268 2.07362C0.740397 3.39929 0.00219684 5.19665 7.44728e-06 7.07143C-0.0022153 8.6035 0.493176 10.094 1.41019 11.3143C1.41019 11.3143 1.6011 11.5682 1.63228 11.6049L7 18L12.3703 11.6016C12.3983 11.5676 12.5898 11.3143 12.5898 11.3143L12.5904 11.3124C13.507 10.0926 14.0022 8.6028 14 7.07143C13.9978 5.19665 13.2596 3.39929 11.9473 2.07362C10.635 0.747945 8.85584 0.00221173 7 0ZM7 9.64286C6.49656 9.64286 6.00442 9.49205 5.58582 9.20949C5.16723 8.92694 4.84097 8.52534 4.64831 8.05547C4.45565 7.5856 4.40524 7.06858 4.50346 6.56977C4.60168 6.07096 4.84411 5.61277 5.20009 5.25315C5.55608 4.89353 6.00964 4.64863 6.50341 4.54941C6.99718 4.45019 7.50898 4.50111 7.9741 4.69574C8.43922 4.89036 8.83677 5.21995 9.11647 5.64282C9.39616 6.06569 9.54545 6.56285 9.54545 7.07143C9.54461 7.75315 9.27616 8.40671 8.79898 8.88876C8.32179 9.37082 7.67484 9.64201 7 9.64286Z" fill="white"/>
</svg>

<svg width="14" height="18" fill="none" xmlns="http://www.w3.org/2000/svg"><path d="M7 0a6.973 6.973 0 00-4.947 2.074A7.116 7.116 0 000 7.07a7.047 7.047 0 001.41 4.243s.191.254.222.29L7 18l5.37-6.398c.028-.034.22-.288.22-.288v-.002A7.044 7.044 0 0014 7.072a7.116 7.116 0 00-2.053-4.998A6.973 6.973 0 007 0zm0 9.643c-.503 0-.996-.15-1.414-.434a2.566 2.566 0 01-.938-1.154A2.596 2.596 0 015.2 5.253a2.522 2.522 0 012.774-.557c.465.194.863.524 1.142.947A2.59 2.59 0 018.8 8.889a2.536 2.536 0 01-1.8.754z" fill="#fff"/></svg>
